synths/iXTZ.svg

<svg width="480" height="480" viewBox="0 0 480 480" fill="none" xmlns="http://www.w3.org/2000/svg"><mask id="mask0-126636" maskUnits="userSpaceOnUse" x="0" y="0" width="480" height="480"><circle cx="240" cy="240" r="240" fill="url(#paint0_linear-937560)"/></mask><g mask="url(#mask0-126636)"><circle cx="240" cy="240" r="240" fill="#FF1E39"/><circle cx="240" cy="240" r="208" fill="#fff"/></g><circle cx="240" cy="240" r="184" fill="#0E052F"/><path d="M240 424c101.62 0 184-82.38 184-184S341.62 56 240 56 56 138.38 56 240s82.38 184 184 184z" fill="#A6E000"/><path fill-rule="evenodd" clip-rule="evenodd" d="M265.185 355c-16.79 0-29.026-3.956-36.708-11.845-7.671-7.912-11.512-16.434-11.512-25.565 0-3.335.667-6.152 2.013-8.429a14.6 14.6 0 015.485-5.405c2.323-1.311 5.175-1.978 8.568-1.978 3.392 0 6.256.667 8.579 1.978a14.638 14.638 0 015.485 5.405c1.346 2.277 2.013 5.094 2.013 8.429 0 4.037-.978 7.326-2.944 9.879a13.614 13.614 0 01-6.969 5.002c2.323 3.163 5.98 5.405 10.982 6.717 5.003 1.414 10.005 2.115 14.996 2.115a33.687 33.687 0 0018.895-5.531c5.623-3.692 9.775-9.142 12.443-16.33 2.679-7.21 4.025-15.376 4.025-24.506 0-9.925-1.472-18.4-4.416-25.427-2.864-7.118-7.107-12.385-12.731-15.812a34.377 34.377 0 00-18.216-5.129c-4.278 0-9.637 1.747-16.065 5.266l-11.788 5.797v-5.797l53.038-69.552h-73.393v72.186c0 5.98 1.334 10.891 4.025 14.755 2.668 3.864 6.785 5.795 12.305 5.795 4.29 0 8.395-1.403 12.328-4.22a43.242 43.242 0 0010.178-10.269 3.94 3.94 0 011.345-1.726 2.718 2.718 0 011.737-.643c.989 0 2.139.483 3.484 1.437a7.114 7.114 0 011.875 4.876 33.464 33.464 0 01-.667 3.691c-3.036 6.67-7.245 11.765-12.593 15.284a31.602 31.602 0 01-17.675 5.267c-15.893 0-26.876-3.07-32.948-9.223-6.072-6.141-9.108-14.49-9.108-25.024v-72.186H153.75v-13.443h37.49v-30.544l-8.556-8.441V125h24.909l9.372 4.738v41.101l96.957-.264 9.66 9.487-59.478 58.489a40.393 40.393 0 0111.247-2.645c6.44 0 13.662 2.024 21.7 6.072 8.131 3.945 14.375 9.395 18.745 16.33 4.382 6.854 7.199 13.444 8.441 19.769a82.33 82.33 0 012.013 16.859 69.228 69.228 0 01-7.234 31.349 46.423 46.423 0 01-21.965 21.597A72.336 72.336 0 01265.185 355z" fill="#fff"/><defs><linearGradient id="paint0_linear-937560" x1="240" y1="0" x2="240" y2="701.818" gradientUnits="userSpaceOnUse"><stop stop-color="#08021E"/><stop offset="1" stop-color="#1F0777"/></linearGradient></defs></svg>

<svg width="480" height="480" viewBox="0 0 480 480" fill="none" xmlns="http://www.w3.org/2000/svg">
<mask id="mask0-126636" mask-type="alpha" maskUnits="userSpaceOnUse" x="0" y="0" width="480" height="480">
<circle cx="240" cy="240" r="240" fill="url(#paint0_linear-937560)"/>
</mask>
<g mask="url(#mask0-126636)">
<circle cx="240" cy="240" r="240" fill="#FF1E39"/>
<circle cx="240" cy="240" r="208" fill="white"/>
</g>
<circle cx="240" cy="240" r="184" fill="#0E052F"/>
<path d="M240 424C341.62 424 424 341.62 424 240C424 138.38 341.62 56 240 56C138.38 56 56 138.38 56 240C56 341.62 138.38 424 240 424Z" fill="#A6E000"/>
<path fill-rule="evenodd" clip-rule="evenodd" d="M265.185 355C248.395 355 236.159 351.044 228.477 343.155C220.806 335.243 216.965 326.721 216.965 317.59C216.965 314.255 217.632 311.438 218.978 309.161C220.29 306.901 222.184 305.034 224.463 303.756C226.786 302.445 229.638 301.778 233.031 301.778C236.423 301.778 239.287 302.445 241.61 303.756C243.933 305.079 245.75 306.872 247.095 309.161C248.441 311.438 249.108 314.255 249.108 317.59C249.108 321.627 248.13 324.916 246.164 327.469C244.441 329.844 241.996 331.598 239.195 332.471C241.518 335.634 245.175 337.876 250.177 339.188C255.18 340.602 260.182 341.303 265.173 341.303C271.882 341.382 278.461 339.456 284.068 335.772C289.691 332.08 293.843 326.63 296.511 319.442C299.19 312.232 300.536 304.066 300.536 294.936C300.536 285.011 299.064 276.536 296.12 269.509C293.256 262.391 289.013 257.124 283.389 253.697C277.917 250.317 271.606 248.54 265.173 248.568C260.895 248.568 255.536 250.315 249.108 253.834L237.32 259.631V253.834L290.358 184.282H216.965V256.468C216.965 262.448 218.299 267.359 220.99 271.223C223.658 275.087 227.775 277.018 233.295 277.018C237.585 277.018 241.69 275.615 245.623 272.798C249.568 269.97 253.009 266.499 255.801 262.529C256.077 261.838 256.544 261.24 257.146 260.803C257.632 260.392 258.247 260.164 258.883 260.16C259.872 260.16 261.022 260.643 262.367 261.597C263.588 262.926 264.258 264.669 264.242 266.473C264.089 267.715 263.866 268.947 263.575 270.164C260.539 276.834 256.33 281.929 250.982 285.448C245.745 288.922 239.591 290.756 233.307 290.715C217.414 290.715 206.431 287.645 200.359 281.492C194.287 275.351 191.251 267.002 191.251 256.468V184.282H153.75V170.839H191.24V140.295L182.684 131.854V125H207.593L216.965 129.738V170.839L313.922 170.575L323.582 180.062L264.104 238.551C267.707 237.135 271.495 236.244 275.351 235.906C281.791 235.906 289.013 237.93 297.051 241.978C305.182 245.923 311.426 251.373 315.796 258.308C320.178 265.162 322.995 271.752 324.237 278.077C325.487 283.612 326.162 289.262 326.25 294.936C326.334 305.808 323.856 316.548 319.016 326.285C314.366 335.774 306.618 343.392 297.051 347.882C287.111 352.652 276.211 355.087 265.185 355Z" fill="white"/>
<defs>
<linearGradient id="paint0_linear-937560" x1="240" y1="0" x2="240" y2="701.818" gradientUnits="userSpaceOnUse">
<stop stop-color="#08021E"/>
<stop offset="1" stop-color="#1F0777"/>
</linearGradient>
</defs>
</svg>
